korla/actions/symbolic/open-menu-symbolic.svg

<svg style="clip-rule:evenodd;fill-rule:evenodd;stroke-linejoin:round;stroke-miterlimit:2" version="1.1" viewBox="0 0 16 16" xmlns="http://www.w3.org/2000/svg">
 <path d="m10 2c0-1.097-0.903-2-2-2s-2 0.903-2 2 0.903 2 2 2 2-0.903 2-2zm0 6c0-1.097-0.903-2-2-2s-2 0.903-2 2 0.903 2 2 2 2-0.903 2-2zm0 6c0-1.097-0.903-2-2-2s-2 0.903-2 2 0.903 2 2 2 2-0.903 2-2z" style="fill-rule:nonzero;fill:rgb(223,223,223)"/>
</svg>

<svg xmlns="http://www.w3.org/2000/svg" width="16" height="16" version="1.1">
 <path style="fill:#dfdfdf" d="M 10,2 A 2,2 0 0 0 8,0 2,2 0 0 0 6,2 2,2 0 0 0 8,4 2,2 0 0 0 10,2 Z M 10,8 A 2,2 0 0 0 8,6 2,2 0 0 0 6,8 2,2 0 0 0 8,10 2,2 0 0 0 10,8 Z M 10,14 A 2,2 0 0 0 8,12 2,2 0 0 0 6,14 2,2 0 0 0 8,16 2,2 0 0 0 10,14 Z"/>
</svg>
